svg/u1f9f4.svg

<svg viewBox="0 0 128 128" xmlns="http://www.w3.org/2000/svg">
  <g>
    <path d="M96,78.61c-2.54-21.43-9.49-39.07-9.49-39.07h-0.09c-0.95-3.91-10.36-6.99-21.84-6.99 c-0.19,0-0.38,0.01-0.58,0.01c-0.19,0-0.38-0.01-0.58-0.01c-11.48,0-20.88,3.07-21.84,6.99h-0.09c0,0-6.95,17.64-9.49,39.07 c-2.53,21.35-3.61,34.42,1.95,39.83C37.67,122.06,53.54,124,64,124s26.33-1.94,30.05-5.56C99.61,113.03,98.53,99.96,96,78.61z" fill="#4FE8D8"/>
    <path d="M63.56,19.37c-6.49,0-11.76,1.09-11.76,2.43v13.73c0,1.34,5.27,2.43,11.76,2.43 c6.49,0,11.76-1.09,11.76-2.43V21.81C75.32,20.46,70.05,19.37,63.56,19.37z" fill="#78909C"/>
    <path d="M67.27,21.19c0,0-1.31,0.62-3.84,0.62c-2.54,0-3.84-0.62-3.84-0.62V10.06h7.69V21.19z" fill="#78909C"/>
    <path d="M63.01,17.2c-3.59-1.4-3.43-3.36-3.43-3.36v-1.89h7.69v5.9C67.27,17.85,66.1,18.4,63.01,17.2z" fill="#546E7A"/>
    <path d="M53.51,4.87l-1.05,2.53c-0.27,0.66,0.06,1.32,0.62,1.77c1.93,1.54,5.72,3.49,9.56,3.49 c11.03,0,13.08-2.7,17.04-2.87c3.38-0.15,5.96,0.86,7.31,1.21c0.44,0.11,0.91-0.07,1.16-0.45l1.76-2.68 c0.37-0.56,0.14-1.31-0.47-1.57c-1.9-0.8-5.9-2.22-10.17-2.22c-7.43,0-10.82,1.66-15.42,1.48c-3.04-0.11-6.76-0.96-8.64-1.51 C54.51,3.85,53.79,4.21,53.51,4.87z" fill="#78909C"/>
    <path d="M57.94,25.79c-0.22-0.03-0.45-0.06-0.67-0.09c-0.91-0.14-1.84-0.37-2.62-0.86 c-0.58-0.37-1.09-0.9-1.35-1.55c-0.26-0.63-0.03-1.17,0.73-0.96c1.61,0.44,3.2,0.84,4.84,1.13c1.44,0.25,2.92,0.17,4.38,0.18 c0.39,0,0.96,0.23,0.71,0.73c-0.09,0.19-0.28,0.32-0.46,0.43C61.75,25.82,59.88,26.01,57.94,25.79z" opacity="0.75" fill="#A7FFEB"/>
    <path d="M40.91,70.29c-0.98,0.02-1.32-2.58-1.01-6.51c0.54-7.03,1.68-12.3,4.59-18.73 c1.87-4.14,8.5-3.19,6.72,1.17c-4.23,10.38-5.82,14.49-7.16,18.42C42.85,68.19,42.14,70.26,40.91,70.29z" fill="#A7FFEB"/>
    <path d="M50.61,82.5c-0.02-7.53,7.96-19.22,11.79-24.16c0.99-1.28,2.08-1.36,3.02-0.04 c3.69,5.18,11.98,16.25,11.98,24.2c0,7.4-6,13.4-13.4,13.4S50.63,89.89,50.61,82.5z" fill="#FFFFFF"/>
  </g>
</svg>

<svg viewBox="0 0 128 128" xmlns="http://www.w3.org/2000/svg">
  <defs/>
  <path d="M96,78.61 C93.46,57.18 86.51,39.54 86.51,39.54 L86.42,39.54 C85.47,35.63 76.06,32.55 64.58,32.55 C64.39,32.55 64.2,32.56 64,32.56 C63.81,32.56 63.62,32.55 63.42,32.55 C51.94,32.55 42.54,35.62 41.58,39.54 L41.49,39.54 C41.49,39.54 34.54,57.18 32,78.61 C29.47,99.96 28.39,113.03 33.95,118.44 C37.67,122.06 53.54,124 64,124 C74.46,124 90.33,122.06 94.05,118.44 C99.61,113.03 98.53,99.96 96,78.61 Z" fill="#4FE8D8"/>
  <path d="M63.56,19.37 C57.07,19.37 51.8,20.46 51.8,21.8 L51.8,35.53 C51.8,36.87 57.07,37.96 63.56,37.96 C70.05,37.96 75.32,36.87 75.32,35.53 L75.32,21.81 C75.32,20.46 70.05,19.37 63.56,19.37 Z" fill="#78909C"/>
  <path d="M67.27,21.19 C67.27,21.19 65.96,21.81 63.43,21.81 C60.89,21.81 59.59,21.19 59.59,21.19 L59.59,10.06 L67.28,10.06 L67.28,21.19 Z" fill="#78909C"/>
  <path d="M63.01,17.2 C59.42,15.8 59.58,13.84 59.58,13.84 L59.58,11.95 L67.27,11.95 L67.27,17.85 C67.27,17.85 66.1,18.4 63.01,17.2 Z" fill="#546E7A"/>
  <path d="M53.51,4.87 L52.46,7.4 C52.19,8.06 52.52,8.72 53.08,9.17 C55.01,10.71 58.8,12.66 62.64,12.66 C73.67,12.66 75.72,9.96 79.68,9.79 C83.06,9.64 85.64,10.65 86.99,11 C87.43,11.11 87.9,10.93 88.15,10.55 L89.91,7.87 C90.28,7.31 90.05,6.56 89.44,6.3 C87.54,5.5 83.54,4.08 79.27,4.08 C71.84,4.08 68.45,5.74 63.85,5.56 C60.81,5.45 57.09,4.6 55.21,4.05 C54.51,3.85 53.79,4.21 53.51,4.87 Z" fill="#78909C"/>
  <path d="M57.94,25.79 C57.72,25.76 57.49,25.73 57.27,25.7 C56.36,25.56 55.43,25.33 54.65,24.84 C54.07,24.47 53.56,23.94 53.3,23.29 C53.04,22.66 53.27,22.12 54.03,22.33 C55.64,22.77 57.23,23.17 58.87,23.46 C60.31,23.71 61.79,23.63 63.25,23.64 C63.64,23.64 64.21,23.87 63.96,24.37 C63.87,24.56 63.68,24.69 63.5,24.8 C61.75,25.82 59.88,26.01 57.94,25.79 Z" fill="#A7FFEB" opacity="0.75"/>
  <path d="M40.91,70.29 C39.93,70.31 39.59,67.71 39.9,63.78 C40.44,56.75 41.58,51.48 44.49,45.05 C46.36,40.91 52.99,41.86 51.21,46.22 C46.98,56.6 45.39,60.71 44.05,64.64 C42.85,68.19 42.14,70.26 40.91,70.29 Z" fill="#A7FFEB"/>
  <path d="M50.61,82.5 C50.59,74.97 58.57,63.28 62.4,58.34 C63.39,57.06 64.48,56.98 65.42,58.3 C69.11,63.48 77.4,74.55 77.4,82.5 C77.4,89.9 71.4,95.9 64,95.9 C56.6,95.9 50.63,89.89 50.61,82.5 Z" fill="#FFFFFF"/>
</svg>
